!!!COM: Gabriel Faure/
!!!CNT: Francais
!!!TXO: Francais
!!!OTL: Automne
!!!OPS: Op. 18
!!!ONM: No. 3
!!!LYR: Armand Silvestre
!!!ENC: Jacob Pegg
!!!YOR: Album of Twenty Songs (Vingt Me/lodies,) Volume II
!!!YOR: Edward B. Marks Music Corporation, RCA Building, Radio
!!!YOR: City, New York 20, N.Y.
!!!ODT: 1878/
!!NB: Vocal melody and text only encoded.
!!NB: First instance of melodic material only encoded.
**kern	**silbe
*clef G2	*
*k[f#c#g#d#]	*
*M12/8	*
*MM70	*
!!created: 2/6/04 12:52
!!proofed and posted: 2/6/04 15:33
!!edit time: 48 min.
=1	=1
1r	.
2r	.
=2	=2
2r	.
1r	.
=3	=3
2.r	.
4r	.
8r	.
8r	.
8r	.
{8g#	{Au-
=4	=4
[4.cc#	-tom-
4cc#]	|
8ee	-ne au
4dd#	ciel
8ee	bru-
4cc#}	-meux,}
{8b	{aux
=5	=5
4cc#	ho-
8b	-ri-
4a	-zons
8b	na-
[2.g#	-vrants,
=6	=6
2.g#]}	|}
2r	.
4r	.
=7	=7
2.r	.
4r	.
8r	.
{4g#	{Aux
8g#	ra-
=8	=8
4.cc#	-pi-
4dd#	-des
8ee	cou-
4.dd#}	-chants,}
{4cc#	{aux
8dd#	au-
=9	=9
4.b	-ro-
4a	-res
8b	pa^-
[2.g#	-li-
=10	=10
4.g#]}	-es,}
4r	.
8r	.
4r	.
8r	.
{4a#	{Je
8a#	re-
=11	=11
4.dd#	-gar-
4b	-de
8b	cou-
4.a#}	-ler,}
{4a#	{com-
8a#	-me
=12	=12
4.b	l'eau
4an	du
8g#	tor-
[4.cc#	-rent,
8cc#]}	|}
8r	.
{8b	{Tes
=13	=13
4.b	jours
4.g#	faits
4e	de
8e	me/-
4f#	-lan-
8f#	-co-
=14	=14
[2.g#	-li-
2.g#]}	-e.}
=15	=15
2r	.
1r	.
=16	=16
2.r	.
4r	.
8r	.
{4.g#	{Sur
=17	=17
4f#	l'ai-
8g#	-le
4a	des
8b	re-
4.cc#	-grets
4ddn	mes
8cc#	es-
=18	=18
4.cc#	-prits
4b	em-
8g#	-por-
4.e#}	-te/s,}
{4e#	{Com-
8e#	-me
=19	=19
4.f#	s'il
4g#	se
8a	pou-
4.b	-vait
4cc#	que
8ddn	no-
=20	=20
[4.ee	-tre a^-
8ee]	|
8ddn	-ge
8cc#	re-
4.b	-nais-
8a}	-se!}
8r	.
{8b	{Par-
=21	=21
4cc#	-cou-
8a	-rent
4e	en
8f#	re^-
4.g#	-vant
4a	les
8b	co-
=22	=22
(4ee	-teaux
8cc#)	|
4g#	en-
8a	-chan-
4.b}	-te/s,}
{4cc#	{Ou\,
8cc#	ja-
=23	=23
[4.ff#	-dis,
4ff#]	|
8ee	sou-
4.ddn	-rit
4cc#	ma
8b	jeu-
=24	=24
4.b	-nes-
[2.a	-se!
4.a_	|
=25	=25
4.a]}	|}
4r	.
8r	.
4r	.
8r	.
8r	.
8r	.
{8g#	{Je
=26	=26
[4.cc#	sens,
4cc#]	|
8cc#	au
4dd#	clair
8ee	so-
4dd#	-leil
8cc#	du
=27	=27
4dd#	sou-
8b	-ve-
4a	-nir
8b	vain-
[2.g#	-queur,
=28	=28
2.g#]}	|}
4r	.
8r	.
{4g#	{Re-
8g#	-fleu-
=29	=29
4.cc#	-rir
4dd#	en
8ee	bou-
[4.dd#	-quet
4dd#]	|
8cc#	les
=30	=30
4dd#	ro-
8b	-ses
4a	de/-
8b	-li-
[2.g#	-e/-
=31	=31
4.g#]}	-es,}
4r	.
8r	.
4r	.
8r	.
{4a#	{Et
8a#	mon-
=32	=32
4.dd#	-ter
4b	a\
8b	mes
4.a#	yeux,
4.a#	des
=33	=33
4b	lar-
8b	-mes,
4an	qu'en
8g#	mon
4.cc#}	coeur}
{4dd#	{Mes
8dd#	vingt
=34	=34
[4.ee	ans
4ee]	|
8ee	a-
4.ff#	-vaient
4ee	ou-
8ddn	-bli-
=35	=35
(2.gg#	-e/
2.b#)	|
=36	=36
1.cc#}	-es!}
*-	*-
